**kern	**kern
*part1	*part1
*staff2	*staff1
*I"Piano	*
*clefF4	*clefG2
*k[b-e-]	*k[b-e-]
=1	=1
1FF 1F	1B- 1dn
*	*clefF4
=	=
1FF	1E- 1F 1A 1c
=	=
1BBB- 1BB-	1D 1F 1B-
*	*clefG2
=	=
1BB- 1F	(4B- 4d
.	16qqd/LL
.	16qqe-/JJ
.	8.B-L 8.d
.	16AJk 16c
.	4d^ 4f
.	8B-) 8d
.	8r
=	=
1BB- 1F	(4B- 4d-X
.	16qqd-/LL
.	16qqe-/JJ
.	8.B-L 8.d-
.	16AJk 16c
.	4d-^ 4f
.	8B-) 8d-
.	8r
*	*clefF4
=	=
*^	*^
4F	2FF	4dn	2B-
12FL	.	12dL	.
12G	.	12e-	.
12FJ	.	12dJ	.
4E-	2FF	4c	2A
12E-L	.	12cL	.
12F	.	12d	.
12E-J	.	12cJ	.
*v	*v	*	*
*	*v	*v
=	=
(2FF	((2E- 2F 2A 2c
4BBB-)	4D)) 4F 4B-
4r	4r
==	==
*-	*-
!!!system-decoration: {(s1,s2)}
